packages/core/src/svgs/tokens/mono/OUSD.svg

<svg width="24" height="24" viewBox="0 0 24 24" fill="none" xmlns="http://www.w3.org/2000/svg">
<path d="M6.03572 17.5731C5.89593 17.409 5.76704 17.236 5.64986 17.0553C5.60151 16.9797 5.55001 16.9063 5.49551 16.835C5.48307 16.8219 5.47 16.7958 5.45693 16.7827C5.41834 16.7179 5.36731 16.6402 5.32873 16.5624L5.29013 16.4851C5.25155 16.4205 5.21296 16.3421 5.17438 16.2779L5.1358 16.2002C5.09381 16.1305 5.05938 16.0567 5.0331 15.9798C5.02003 15.9544 5.00696 15.9152 4.99451 15.8896C4.95593 15.8118 4.92979 15.7464 4.89183 15.6687C4.87876 15.6432 4.86569 15.617 4.85262 15.5784C4.82773 15.5006 4.78852 15.4229 4.763 15.345C4.763 15.3326 4.75055 15.3064 4.75055 15.2933C4.68458 15.114 4.62439 14.9326 4.57008 14.7495C4.57008 14.737 4.55763 14.7234 4.55763 14.6978C4.54517 14.633 4.51842 14.5683 4.50596 14.5029L4.46738 14.3474C4.45493 14.2834 4.44186 14.2311 4.42879 14.1669C4.41635 14.1146 4.40328 14.0499 4.39021 13.9983C4.37777 13.9335 4.3647 13.8818 4.35163 13.8165L4.31304 13.6223C4.3006 13.5706 4.3006 13.506 4.28753 13.4543C4.27507 13.3896 4.262 13.3249 4.262 13.2471C4.24955 13.1948 4.24955 13.1431 4.23586 13.0791C4.22341 13.0007 4.22341 12.9359 4.21097 12.8581C4.21097 12.8065 4.19728 12.7548 4.19728 12.7025C4.19728 12.6122 4.18483 12.5345 4.18483 12.4436C4.18483 12.405 4.18483 12.3665 4.17239 12.3142C4.17239 12.1847 4.15869 12.0553 4.15869 11.9258C4.15869 11.7964 4.15869 11.6793 4.17176 11.5505V11.4335C4.17176 11.3427 4.18421 11.2655 4.18421 11.1746C4.18421 11.1361 4.19728 11.0838 4.19728 11.0452C4.21034 10.9673 4.21034 10.8772 4.22341 10.7987C4.22341 10.7601 4.23586 10.7209 4.23586 10.6823C4.24784 10.5872 4.26071 10.4922 4.27446 10.3974C4.27446 10.3712 4.27446 10.3457 4.2869 10.3326C4.3006 10.2161 4.32611 10.0992 4.35163 9.98277C4.36407 9.94429 4.36407 9.90508 4.37776 9.87952C4.39021 9.80169 4.41635 9.72385 4.42879 9.64616C4.44349 9.60448 4.45209 9.56077 4.45431 9.51663C4.46738 9.43893 4.49289 9.37359 4.50596 9.29633C4.51842 9.2577 4.53149 9.20543 4.54456 9.16694C4.57008 9.08911 4.59559 9.0113 4.60866 8.93351C4.6211 8.89492 4.63417 8.86878 4.64724 8.8302L4.763 8.51902C4.77546 8.48043 4.78852 8.45429 4.80159 8.41571C4.82711 8.33792 4.85262 8.27319 4.89121 8.1954C4.90428 8.15682 4.92979 8.11761 4.94286 8.06594C4.96838 8.00122 4.99451 7.94956 5.0331 7.88484C5.058 7.84563 5.0717 7.79398 5.09721 7.75539C5.12273 7.69005 5.16131 7.63839 5.18683 7.57366C5.21296 7.53507 5.22541 7.49586 5.25155 7.45728L5.4059 7.1853C5.29013 7.61286 5.23785 8.07901 5.23785 8.57129C5.23785 10.2548 5.94548 11.5375 7.3464 12.405C7.42296 13.9205 7.86047 15.1123 8.60538 15.8765L6.03572 17.5731Z" fill="white"/>
<path d="M14.1838 8.50608C14.6208 9.16573 14.9032 9.99535 15.0061 10.993C15.3658 11.161 15.6743 11.3553 15.9569 11.5756C16.9981 12.3914 17.5253 13.5832 17.5253 15.0981C17.5253 15.2798 17.5122 15.4616 17.4991 15.6427V15.6302C18.7849 12.7119 18.3623 8.7015 16.2774 6.25439L14.1838 8.50608Z" fill="white"/>
<path fill-rule="evenodd" clip-rule="evenodd" d="M12.3816 10.5015C12.4613 10.52 12.5422 10.5381 12.6281 10.5518C14.7739 10.9794 17.2416 11.873 17.2291 15.1635C17.2291 15.6558 17.1775 16.1219 17.0618 16.5364C16.8476 16.9173 16.598 17.2771 16.3161 17.6113C15.5712 18.4919 14.6582 19.1397 13.6176 19.5281C13.5701 19.5424 13.5227 19.5577 13.4757 19.5742C13.4289 19.59 13.3819 19.6049 13.3344 19.6189C13.2417 19.6501 13.1484 19.6787 13.0556 19.7035V22H9.32147V19.6774C8.24357 19.2959 6.60553 18.2822 6.02238 17.5857V17.4948L8.52917 15.7977C8.8729 16.1524 9.28415 16.4349 9.73853 16.6284C10.1929 16.822 10.6816 16.9228 11.1755 16.9247C12.9747 16.9247 13.8361 15.9408 13.8361 15.151C13.8361 13.8846 12.6337 13.6617 11.2372 13.4035L11.2271 13.4022C10.8168 13.3375 10.4094 13.2553 10.006 13.1557C7.76996 12.6117 5.48218 11.6402 5.48218 8.5839C5.48218 7.68959 5.67511 6.91226 6.06097 6.26501C7.73138 4.2965 8.90209 4.17389 9.22882 4.13965C9.29533 4.13281 9.32714 4.12908 9.32147 4.11476V2H13.0556V4.15334C14.4273 4.47262 15.4262 5.23625 16.3292 6.31666L16.3417 6.39446L14.2729 8.53162L14.1858 8.51296C13.5174 7.51533 12.4737 6.9776 11.1755 6.9776C9.72358 6.9776 8.91385 7.63793 8.91385 8.4669C8.91385 9.79251 10.2706 10.0694 12.1532 10.4541L12.1905 10.4615C12.254 10.4734 12.3176 10.4871 12.3816 10.5015Z" fill="white"/>
<path fill-rule="evenodd" clip-rule="evenodd" d="M19.8414 4.92852C18.6575 4.92852 18.2194 5.31439 18.2194 6.55287C18.2194 5.315 17.7807 4.92852 16.5969 4.92852C17.7807 4.92852 18.2194 4.54267 18.2194 3.30542C18.2194 4.54267 18.6575 4.92852 19.8414 4.92852Z" fill="white"/>
</svg>

<svg xmlns="http://www.w3.org/2000/svg" width="24" height="24" fill="none" viewBox="0 0 24 24">
    <path fill="#fff" d="M6.036 17.573a5 5 0 0 1-.386-.518 3 3 0 0 0-.154-.22c-.013-.013-.026-.04-.04-.052-.038-.065-.089-.143-.127-.22l-.039-.078c-.038-.064-.077-.143-.116-.207l-.038-.078a1 1 0 0 1-.103-.22c-.013-.026-.026-.065-.038-.09-.04-.078-.065-.144-.103-.221a1 1 0 0 1-.04-.09c-.024-.078-.063-.156-.089-.234 0-.012-.012-.039-.012-.052a9 9 0 0 1-.18-.543c0-.013-.013-.027-.013-.052-.013-.065-.04-.13-.052-.195l-.039-.156c-.012-.064-.025-.116-.038-.18l-.039-.169c-.012-.064-.025-.116-.038-.181l-.039-.195c-.012-.051-.012-.116-.025-.168a1 1 0 0 1-.026-.207c-.012-.052-.012-.104-.026-.168-.013-.078-.013-.143-.025-.22 0-.053-.014-.104-.014-.156 0-.09-.012-.168-.012-.26 0-.038 0-.076-.013-.129 0-.13-.013-.259-.013-.388 0-.13 0-.247.013-.376v-.117c0-.09.012-.168.012-.258 0-.039.013-.091.013-.13.013-.078.013-.168.026-.246 0-.039.013-.078.013-.117l.038-.285c0-.026 0-.051.013-.064.014-.117.04-.234.065-.35.012-.039.012-.078.026-.103.012-.078.038-.156.05-.234a.5.5 0 0 0 .026-.13c.013-.077.039-.142.052-.22.012-.038.025-.09.039-.13a2 2 0 0 0 .064-.232c.012-.04.025-.065.038-.104l.116-.311c.012-.039.026-.065.039-.103a2 2 0 0 1 .09-.22c.012-.04.038-.078.05-.13.026-.065.053-.116.091-.181.025-.04.039-.091.064-.13.026-.065.064-.117.09-.181.026-.039.038-.078.065-.117l.154-.272a5.3 5.3 0 0 0-.168 1.386c0 1.684.707 2.967 2.108 3.834.077 1.516.514 2.707 1.26 3.472zm8.148-9.067c.437.66.72 1.49.822 2.487.36.168.668.362.95.583 1.042.815 1.57 2.007 1.57 3.522 0 .182-.014.364-.027.545v-.013c1.286-2.918.863-6.929-1.222-9.376z"/>
    <path fill="#fff" fill-rule="evenodd" d="M12.382 10.502q.118.028.246.05c2.146.427 4.614 1.321 4.601 4.612 0 .492-.052.958-.167 1.372q-.322.573-.746 1.075a6.5 6.5 0 0 1-2.698 1.917q-.072.021-.142.046l-.142.045a5 5 0 0 1-.278.084V22H9.32v-2.323c-1.077-.381-2.715-1.395-3.299-2.091v-.091l2.507-1.697a3.7 3.7 0 0 0 2.646 1.127c1.8 0 2.661-.984 2.661-1.774 0-1.266-1.202-1.49-2.599-1.748h-.01q-.616-.099-1.221-.247c-2.236-.544-4.524-1.516-4.524-4.572 0-.894.193-1.672.579-2.319C7.73 4.297 8.901 4.174 9.228 4.14c.066-.007.098-.01.092-.025V2h3.735v2.153c1.371.32 2.37 1.083 3.273 2.164l.013.077-2.07 2.138-.086-.019c-.669-.998-1.712-1.535-3.01-1.535-1.452 0-2.262.66-2.262 1.489 0 1.326 1.357 1.602 3.24 1.987l.037.007q.095.018.19.04m7.461-5.572c-1.184 0-1.622.385-1.622 1.624 0-1.238-.438-1.624-1.622-1.624 1.184 0 1.622-.386 1.622-1.624 0 1.238.438 1.624 1.622 1.624" clip-rule="evenodd"/>
</svg>
